X:17
T:Back O' The Lake Jig
R:jig
C:Bruce Osborne  --  May 30 1993
Z:abc by bosborne@kos.net
M:6/8
L:1/8
K:D
D|FEF DFA|dfa baf|dcd faf|cee efe|\
FEF DFA|dfa baf|dcd faf|gec d2:|
|:A|FEF DFA|A,CE DFA|dcd fed|cee efe|\
FEF DFA|A,CE DFA|dcd faf|gec d2:|
